src/renderer/assets/icon/translate.svg

<svg xmlns="http://www.w3.org/2000/svg" x="0px" y="0px" width="50" height="50" viewBox="0 0 48 48" style="fill:#000000;"><g id="surface1"><path style=" fill:#CFD8DC;" d="M 15 13 L 40 13 C 41.105469 13 42 13.894531 42 15 L 42 40 C 42 41.105469 41.105469 42 40 42 L 26 42 Z "></path><path style=" fill:#546E7A;" d="M 26.832031 34.855469 L 25.914063 33.078125 L 26.804688 32.617188 C 26.867188 32.589844 32.90625 29.410156 35.847656 23.515625 L 36.292969 22.621094 L 38.085938 23.511719 L 37.636719 24.40625 C 34.394531 30.902344 27.992188 34.257813 27.722656 34.398438 Z "></path><path style=" fill:#546E7A;" d="M 38.019531 34 L 37.148438 33.511719 C 36.941406 33.394531 32.058594 30.609375 28.652344 25.84375 L 30.28125 24.679688 C 33.417969 29.074219 38.085938 31.742188 38.132813 31.769531 L 39 32.261719 Z "></path><path style=" fill:#546E7A;" d="M 26 22 L 40 22 L 40 24 L 26 24 Z "></path><path style=" fill:#546E7A;" d="M 32 20 L 34 20 L 34 24 L 32 24 Z "></path><path style=" fill:#2196F3;" d="M 33 35 L 8 35 C 6.894531 35 6 34.105469 6 33 L 6 8 C 6 6.894531 6.894531 6 8 6 L 22 6 Z "></path><path style=" fill:#3F51B5;" d="M 26 42 L 23 35 L 33 35 Z "></path><path style=" fill:#FFFFFF;" d="M 19.171875 24 L 14.8125 24 L 13.804688 27 L 11 27 L 15.765625 14 L 18.207031 14 L 23 27 L 20.195313 27 Z M 15.445313 22 L 18.546875 22 L 16.984375 17.285156 Z "></path></g></svg>

<svg xmlns="http://www.w3.org/2000/svg" width="50" height="50" viewBox="0 0 48 48" fill="#000000"><path d="M15 13h25c1.105 0 2 .895 2 2v25c0 1.105-.895 2-2 2H26z" fill="#CFD8DC"/><path d="M26.832 34.855l-.918-1.777.89-.46c.063-.028 6.102-3.208 9.044-9.102l.445-.895 1.793.89-.45.895c-3.241 6.496-9.644 9.852-9.913 9.992z" fill="#546E7A"/><path d="M38.02 34l-.872-.488c-.207-.117-5.09-2.903-8.496-7.668l1.63-1.164c3.136 4.394 7.804 7.062 7.85 7.09l.868.492zM26 22h14v2H26z" fill="#546E7A"/><path d="M32 20h2v4h-2z" fill="#546E7A"/><path d="M33 35H8c-1.105 0-2-.895-2-2V8c0-1.105.895-2 2-2h14z" fill="#2196F3"/><path d="M26 42l-3-7h10z" fill="#3F51B5"/><path d="M19.172 24h-4.36l-1.007 3H11l4.766-13h2.441L23 27h-2.805zm-3.727-2h3.102l-1.563-4.715z" fill="#FFFFFF"/></svg>
